X:2902
T:Jack Keane's Reel
O:england
M:C|
L:1/8
R:reel
D:Patrick Street No.2
K:D
AD~D2 A2AB|AFDE FEEB|AD~D2 A2AB|1 ABdf efdB:|2 ABdf efdf||
|:a2fd eddB|ABdf eBBf|a2fd eddB|1 ABdf (3efe df:|2 ABdf e2dB||


